!!!OTL: ICH GING IM WALDE SO FUER MICH HIN
!!!ARE: Europa, Mitteleuropa, Deutschland
!!!SCT: B0116
!!!YEM: Copyright 1995, estate of Helmut Schaffrath.
**kern
*ICvox
*Ivox
*M3/4
*k[b-e-]
*B-:
{8f
8b-
8g
=1
8.f
16g
8f
8e-
8d
8f
=2
4b-
8r}
{8f
8b-
8g
=3
8.f
16g
8f
8e-
8d
8f
=4
4b-
8r}
{8b-
8a
8b-
=5
8.cc
16dd
8cc
8b-
8a
8g
=6
8.f
16g
8f}
{8f
8b-
8cc
=7
8.dd
16ee-
8ff
8dd
8cc
8cc
=8
4.b-}
==
!!!AGN: Ballade, Romanze
!!!ONB: ESAC (Essen Associative Code) Database: BOEHME
!!!AMT: simple triple
!!!AIN: vox
!!!EED: Helmut Schaffrath
!!!EEV: 1.0
*-
